X:22
T:Si-t\^ot qu'a table.  [FJ22]
S:Festin joyeux.  Music page 11.
Z:transcribed by Eric Conrad, 2021.
N:NB The meter is given simply as "3"
N:NB In the MS, the G is the bottom line of the staff (lines: GBdfa)
N:NB There are no repeats in the MS.  There are two parts.
N:NB The plus signs seem to indicate some kind of roll or trill.
N:The D# in measure 16 is interesting...
M:3/4
L:1/4
% K:Ddor clef=treble1 % MS has G on line 1, so third line is D
K:Ddor % no accidentals in key signature, ending on D
ddd | a2a | _b2a | "^+"g3 | aag | ^ffg | a"^+"e2 | d3 ||
eee | f2f | c2c | f3 | fef | d2f | "^+"d2c | ^d2d |
eee | f2f | c2c | f3 | fef | ^c2d | e"^+"e2 | d3 |]


